X:1
T: Miss Douglas
C:
R:Jig
Q:180
K:D
M:6/8
L:1/16
g2|f4d2 e2d2c2|d4B2 A2G2F2|G2A2B2 d2A2F2|G2E2E2 E4g2|f4d2 e2d2c2|d4B2 A2G2F2|G2A2B2 d2A2G2|F2D2D2 D4g2|
f4d2 e2d2c2|d4B2 A2G2F2|G2A2B2 d2A2F2|G2E2E2 E4g2|f4d2 e2d2c2|d4B2 A2G2F2|G2A2B2 d2A2G2|F2D2D2 D4g2|
a2f2d2 d2e2d2|g2f2g2 a4f2|g4a2 b2a2f2|g2e2e2 e2f2g2|a2f2d2 d2e2d2|g2f2g2 a4f2|g4a2 b2a2g2|f2d2d2 d4g2|
a2f2d2 d2e2d2|g2f2g2 a4f2|g4a2 b2a2f2|g2e2e2 e2f2g2|f4d2 e4c2|d4B2 A2G2F2|G2A2B2 d2A2G2|F2D2D2 D4||
